media/theme/theme-1/open_fitur.svg

<svg width="63" height="77" viewBox="0 0 63 77" fill="none" xmlns="http://www.w3.org/2000/svg">
<path d="M34.5594 48.9075L59.3333 35.5192L49.2508 29.6961L34.5594 48.9075Z" fill="#000"/>
<path d="M24 44.3789L19 14.7329L28 18.822L24 44.3789Z" fill="#000"/>
<path d="M27.4089 48.1007L32.5405 21.3545L45.3731 27.9605L27.4089 48.1007Z" fill="#000"/>
<path d="M31.3334 5.19171L40.6667 8.94008L32.7339 16.7872L21 10.9846L31.3334 5.19171Z" fill="#000"/>
<path d="M53 15L60.5 18.6667L63 34L53 27.6667V15Z" fill="#000"/>
<path d="M47.7665 11.6561L49.379 25.4899L35.3852 17.4777L47.7665 11.6561Z" fill="#000"/>
<path d="M20.3685 23C14.912 24.572 9.84814 27.8171 6.26554 32.1498C2.68293 36.4825 0.527485 41.7812 0.0850358 47.3433C-0.357413 52.9054 0.934038 58.468 3.78813 63.2935C6.64222 68.1189 10.9241 71.9793 16.066 74.3627C21.2078 76.7461 26.9667 77.5398 32.579 76.6386C38.1912 75.7375 43.3916 73.184 47.4906 69.3168C51.5896 65.4497 54.3935 60.4515 55.5305 54.9852C56.6674 49.5188 55.6524 43.2672 53.4254 38.1338L48.7507 40.8853C50.5388 45.0071 51.0272 49.512 50.1144 53.901C49.2015 58.2901 46.9502 62.3032 43.659 65.4082C40.3678 68.5133 36.1923 70.5635 31.6861 71.2871C27.1799 72.0107 22.5559 71.3733 18.4274 69.4597C14.2989 67.546 10.8609 64.4464 8.56927 60.5719C6.27765 56.6974 5.24072 52.2311 5.59597 47.7652C5.95122 43.2993 7.68188 39.0448 10.5584 35.566C13.435 32.0871 16.989 29.4214 21.3702 28.1592L20.3685 23Z" fill="#000"/>
</svg>

<svg fill="none" height="77" width="63" xmlns="http://www.w3.org/2000/svg"><g fill="#000"><path d="M34.56 48.907 59.332 35.52l-10.082-5.823zM24 44.379l-5-29.646 9 4.089zM27.409 48.1l5.131-26.745 12.833 6.606zM31.333 5.192l9.334 3.748-7.933 7.847L21 10.985zM53 15l7.5 3.667L63 34l-10-6.333zM47.767 11.656l1.612 13.834-13.994-8.012z"/><path d="M20.369 23c-5.457 1.572-10.52 4.817-14.103 9.15A27.228 27.228 0 0 0 .085 47.343a27.093 27.093 0 0 0 3.703 15.95c2.854 4.826 7.136 8.686 12.278 11.07a28.536 28.536 0 0 0 16.513 2.276 28.253 28.253 0 0 0 14.912-7.322 27.375 27.375 0 0 0 8.04-14.332c1.136-5.466.121-11.718-2.106-16.851l-4.674 2.751c1.788 4.122 2.276 8.627 1.363 13.016a21.98 21.98 0 0 1-6.455 11.507c-3.291 3.105-7.467 5.155-11.973 5.88s-9.13.085-13.259-1.828a22.365 22.365 0 0 1-9.858-8.888c-2.291-3.875-3.328-8.34-2.973-12.807s2.086-8.72 4.962-12.199c2.877-3.479 6.431-6.145 10.812-7.407z"/></g></svg>
